svgs/duotone/gas-pump.svg

<svg xmlns="http://www.w3.org/2000/svg" viewBox="0 0 512 512"><!--! Font Awesome Pro 6.6.0 by @fontawesome - https://fontawesome.com License - https://fontawesome.com/license (Commercial License) Copyright 2024 Fonticons, Inc. --><defs><style>.fa-secondary{opacity:.4}</style></defs><path class="fa-secondary" d="M32 64l0 384 288 0 0-144 0-48 0-192c0-35.3-28.7-64-64-64L96 0C60.7 0 32 28.7 32 64zM96 80c0-8.8 7.2-16 16-16l128 0c8.8 0 16 7.2 16 16l0 96c0 8.8-7.2 16-16 16l-128 0c-8.8 0-16-7.2-16-16l0-96z"/><path class="fa-primary" d="M384 64l32 32 0 64c0 29.8 20.4 54.9 48 62l0 154c0 13.3-10.7 24-24 24s-24-10.7-24-24l0-32c0-48.6-39.4-88-88-88l-8 0 0 48 8 0c22.1 0 40 17.9 40 40l0 32c0 39.8 32.2 72 72 72s72-32.2 72-72l0-152 0-32 0-24 0-13.5c0-17-6.7-33.3-18.7-45.3L416 32c-8.8-8.8-23.2-8.8-32 0s-8.8 23.2 0 32zM0 480c0 17.7 14.3 32 32 32l288 0c17.7 0 32-14.3 32-32s-14.3-32-32-32L32 448c-17.7 0-32 14.3-32 32z"/></svg>

<svg xmlns="http://www.w3.org/2000/svg" viewBox="0 0 512 512"><!--! Font Awesome Pro 6.4.0 by @fontawesome - https://fontawesome.com License - https://fontawesome.com/license (Commercial License) Copyright 2023 Fonticons, Inc. --><defs><style>.fa-secondary{opacity:.4}</style></defs><path class="fa-primary" d="M384 64l32 32v64c0 29.8 20.4 54.9 48 62V376c0 13.3-10.7 24-24 24s-24-10.7-24-24V344c0-48.6-39.4-88-88-88h-8v48h8c22.1 0 40 17.9 40 40v32c0 39.8 32.2 72 72 72s72-32.2 72-72V224 192 168 154.5c0-17-6.7-33.3-18.7-45.3L416 32c-8.8-8.8-23.2-8.8-32 0s-8.8 23.2 0 32zM0 480c0 17.7 14.3 32 32 32H320c17.7 0 32-14.3 32-32s-14.3-32-32-32H32c-17.7 0-32 14.3-32 32z"/><path class="fa-secondary" d="M96 0C60.7 0 32 28.7 32 64V448H320V64c0-35.3-28.7-64-64-64H96zm16 64H240c8.8 0 16 7.2 16 16v96c0 8.8-7.2 16-16 16H112c-8.8 0-16-7.2-16-16V80c0-8.8 7.2-16 16-16z"/></svg>
